icons/glyphs/glyph-zipper.svg

<?xml version="1.0" encoding="UTF-8" standalone="no"?><svg height="16mm" viewBox="0 0 16 16" width="16mm" xmlns="http://www.w3.org/2000/svg"><sodipodi:namedview/><metadata><rdf:RDF><cc:Work><dc:format>image/svg+xml</dc:format><dc:type/><dc:title/></cc:Work></rdf:RDF></metadata><path d="m19.013672 0c-.475452 0-.859375.38382101-.859375.859375v8.8300781c0 .4755539.383923.8574219.859375.8574219h9.591797c.475455 0 .857422-.381831.857422-.8574219v-8.8300781c0-.47551752-.381971-.859375-.857422-.859375zm12.853516 12.091797c-.475456 0-.859376.37995-.859376.855469v8.828125c0 .475553.38392.859375.859376.859375h9.591796c.475469 0 .857422-.383785.857422-.859375v-8.828125c0-.475555-.38198-.855469-.857422-.855469zm-11.0625 12.779297c-.863437 0-1.518048.696214-1.558594 1.558594l-1.529297 32.482421c-.040554.86256.793942 1.560547 1.777344 1.560547h21.486328c.983395 0 1.815937-.697987 1.77539-1.560547l-1.527343-32.482421c-.040555-.862417-.697114-1.558594-1.560547-1.558594zm2.523437 22.716797h13.816406c.602495 0 1.073446.295683 1.087891.664062l.27539 7.009766c.024567.62265-.501795 1.126953-1.125 1.126953h-14.292968c-.623199 0-1.149416-.504303-1.125-1.126953l.27539-7.009766c.014438-.36839.485401-.664062 1.087891-.664062z" fill="#d0d0d0" stroke-width=".79707" transform="scale(.26458333)"/></svg>

<?xml version="1.0" encoding="UTF-8" standalone="no"?>
<!-- Created with Inkscape (http://www.inkscape.org/) -->

<svg
   xmlns:dc="http://purl.org/dc/elements/1.1/"
   xmlns:cc="http://creativecommons.org/ns#"
   xmlns:rdf="http://www.w3.org/1999/02/22-rdf-syntax-ns#"
   xmlns:svg="http://www.w3.org/2000/svg"
   xmlns="http://www.w3.org/2000/svg"
   xmlns:sodipodi="http://sodipodi.sourceforge.net/DTD/sodipodi-0.dtd"
   xmlns:inkscape="http://www.inkscape.org/namespaces/inkscape"
   width="16mm"
   height="16mm"
   viewBox="0 0 16 16"
   version="1.1"
   id="svg8"
   inkscape:version="0.92+devel (572d1a9d8b, 2017-07-17, custom)"
   sodipodi:docname="glyph-zipper.svg">
  <defs
     id="defs2" />
  <sodipodi:namedview
     id="base"
     pagecolor="#002466"
     bordercolor="#ffffff"
     borderopacity="0.38039216"
     inkscape:pageopacity="1"
     inkscape:pageshadow="2"
     inkscape:zoom="7.1685545"
     inkscape:cx="23.438906"
     inkscape:cy="12.30964"
     inkscape:document-units="mm"
     inkscape:current-layer="svg8"
     inkscape:document-rotation="0"
     showgrid="false"
     inkscape:showpageshadow="false"
     borderlayer="true"
     inkscape:window-width="1920"
     inkscape:window-height="1051"
     inkscape:window-x="0"
     inkscape:window-y="0"
     inkscape:window-maximized="1" />
  <metadata
     id="metadata5">
    <rdf:RDF>
      <cc:Work
         rdf:about="">
        <dc:format>image/svg+xml</dc:format>
        <dc:type
           rdf:resource="http://purl.org/dc/dcmitype/StillImage" />
        <dc:title />
      </cc:Work>
    </rdf:RDF>
  </metadata>
  <path
     style="opacity:1;fill:#d0d0d0;stroke-width:0.79707038"
     d="M 19.013672 0 C 18.53822 0 18.154297 0.38382101 18.154297 0.859375 L 18.154297 9.6894531 C 18.154297 10.165007 18.53822 10.546875 19.013672 10.546875 L 28.605469 10.546875 C 29.080924 10.546875 29.462891 10.165044 29.462891 9.6894531 L 29.462891 0.859375 C 29.462891 0.38385748 29.08092 -7.4014868e-17 28.605469 0 L 19.013672 0 z M 31.867188 12.091797 C 31.391732 12.091797 31.007812 12.471747 31.007812 12.947266 L 31.007812 21.775391 C 31.007812 22.250944 31.391732 22.634766 31.867188 22.634766 L 41.458984 22.634766 C 41.934453 22.634766 42.316406 22.250981 42.316406 21.775391 L 42.316406 12.947266 C 42.316406 12.471711 41.934426 12.091797 41.458984 12.091797 L 31.867188 12.091797 z M 20.804688 24.871094 C 19.941251 24.871094 19.28664 25.567308 19.246094 26.429688 L 17.716797 58.912109 C 17.676243 59.774669 18.510739 60.472656 19.494141 60.472656 L 40.980469 60.472656 C 41.963864 60.472656 42.796406 59.774669 42.755859 58.912109 L 41.228516 26.429688 C 41.187961 25.567271 40.531402 24.871094 39.667969 24.871094 L 20.804688 24.871094 z M 23.328125 47.587891 L 37.144531 47.587891 C 37.747026 47.587891 38.217977 47.883574 38.232422 48.251953 L 38.507812 55.261719 C 38.532379 55.884369 38.006017 56.388672 37.382812 56.388672 L 23.089844 56.388672 C 22.466645 56.388672 21.940428 55.884369 21.964844 55.261719 L 22.240234 48.251953 C 22.254672 47.883563 22.725635 47.587891 23.328125 47.587891 z "
     transform="scale(0.26458333)"
     id="path1560" />
</svg>
